assets/logo.svg

<svg xmlns="http://www.w3.org/2000/svg" width="48" height="48" fill="none" xmlns:v="https://vecta.io/nano"><path d="M34 28v-8h2v-2h2v-2h4v-2h2v-4h-2V8h-4v2h-2v4h-2v2h-2v2h-4v-2h-8v-2h-2v-2h-2V8h-2V6h-4v2H8v4h2v2h4v2h2v2h2v4h-2v2h-4v-2h-2v-2H4v2H2v6h2v2h6v-2h8v2h2v2h2v2h6v-2h2v2h2v2h2v6h2v2h6v-2h2v-6h-2v-2h-6v-2h-2v-2h-2v-2h2zm-6 0h-6v-6h6v6z" fill="#000"/></svg>

<svg width="48" height="48" viewBox="0 0 48 48" fill="none" xmlns="http://www.w3.org/2000/svg">
<path d="M34 28V20H36V18H38V16H42V14H44V10H42V8H38V10H36V14H34V16H32V18H28V16H20V14H18V12H16V8H14V6H10V8H8V12H10V14H14V16H16V18H18V22H16V24H12V22H10V20H4V22H2V28H4V30H10V28H18V30H20V32H22V34H28V32H30V34H32V36H34V42H36V44H42V42H44V36H42V34H36V32H34V30H32V28H34ZM28 28H22V22H28V28Z" fill="black"/>
</svg>
